Papirus/22x22/mimetypes/video-x-generic.svg

<?xml version="1.0" encoding="UTF-8" standalone="no"?>
<svg xmlns="http://www.w3.org/2000/svg" height="22" width="22" version="1">
 <g transform="translate(-1,-1)">
  <path d="m22 20v-16c0-0.554-0.446-1-1-1h-18c-0.554 0-1 0.446-1 1v16c0 0.554 0.446 1 1 1h18c0.554 0 1-0.446 1-1z" fill="#8b96d2"/>
  <path opacity=".2" d="m3 3c-0.554 0-1 0.446-1 1v0.5c0-0.554 0.446-1 1-1h18c0.554 0 1 0.446 1 1v-0.5c0-0.554-0.446-1-1-1z" fill="#fff"/>
  <g transform="translate(1)" fill="#fff">
   <path style="color:#000000;" d="m6.5318 8h6.9352c0.533 0 0.533 0.5714 0.533 0.5714v6.8571c0 0.572-0.533 0.572-0.533 0.572h-6.9336s-0.5334 0-0.5334-0.571v-6.8576s0-0.5714 0.5334-0.5714z"/>
   <path style="color:#000000;" d="m17 9v6l-3-3.1304z"/>
  </g>
 </g>
</svg>

<svg xmlns="http://www.w3.org/2000/svg" width="22" height="22" version="1">
 <g transform="translate(-1,-1)">
  <path style="opacity:0.2" d="m 22,20.5 v -16 c 0,-0.554 -0.446,-1 -1,-1 H 3 c -0.554,0 -1,0.446 -1,1 v 16 c 0,0.554 0.446,1 1,1 h 18 c 0.554,0 1,-0.446 1,-1 z"/>
  <path style="fill:#8b96d2" d="M 22,20 V 4 C 22,3.446 21.554,3 21,3 H 3 C 2.446,3 2,3.446 2,4 v 16 c 0,0.554 0.446,1 1,1 h 18 c 0.554,0 1,-0.446 1,-1 z"/>
  <path style="opacity:0.2;fill:#ffffff" d="M 3,3 C 2.446,3 2,3.446 2,4 v 0.5 c 0,-0.554 0.446,-1 1,-1 h 18 c 0.554,0 1,0.446 1,1 V 4 C 22,3.446 21.554,3 21,3 Z"/>
  <g style="opacity:0.2" transform="translate(1,0.5)">
   <path d="M 6.5318,8 H 13.467 C 14,8 14,8.5714 14,8.5714 v 6.8571 c 0,0.572 -0.533,0.572 -0.533,0.572 H 6.5334 c 0,0 -0.5334,0 -0.5334,-0.571 V 8.5719 c 0,0 0,-0.5714 0.5334,-0.5714 z"/>
   <path d="m 17,9 v 6 l -3,-3.1304 z"/>
  </g>
  <g style="fill:#ffffff" transform="translate(1)">
   <path d="M 6.5318,8 H 13.467 C 14,8 14,8.5714 14,8.5714 v 6.8571 c 0,0.572 -0.533,0.572 -0.533,0.572 H 6.5334 c 0,0 -0.5334,0 -0.5334,-0.571 V 8.5719 c 0,0 0,-0.5714 0.5334,-0.5714 z"/>
   <path d="m 17,9 v 6 l -3,-3.1304 z"/>
  </g>
 </g>
</svg>
